X:375
T:Marino Casino
C:John Sheahan
M:4/4
L:1/8
K:D
|: FG | Adcd B2 cd | Ad G2 F2 ED | G2 FE A2 D2 | EDCD E2 FG | 
Adcd B2 cd | Ad G2 F2 ED | G2 FE A2 C2 |1 D6 :|2 D8 || 
|: CDEC A,2 A2 | GFEF D2 dc | BcdA Gd F2 | E3 D E3 D | 
CDEC A,2 A2 | GFEF D2 dc | BcdA Gd F2 |1 E3 D D4 :|2 E3 D D2 || 

